X: 996
T: The wedding of Ballyporeen
C: anon.
O: Ireland
B: Francis O'Neill: "The Dance Music of Ireland" (1907) no. 996
Z: Transcribed by Frank Nordberg - http://www.musicaviva.com
F: http://www.musicaviva.com/abc/tunes/ireland/oneill-1001/oneill-1001-099
6.abc
M: 6/8
L: 1/8
K: G
(B/A/)|G>AG g>fg|agf g2(g/a/)|b>ag efg|dec B2(B/A/)|G>AG g>fg|agf g2(g/a/
)|b>ag e>fg|dec B2||
(c/d/)|ecA A>BA|(e3 c2)c|dBG G>AG|(d3 B2)(c/d/)|ecA A>BA|a3 Hf2 f/f/|gdB
cAF|G3 G2|]
W:
W:
W: From Musica Viva - http://www.musicaviva.com
W: the Internet center for free sheet music downloads.


